X:51
T:Air By Mr.Arne,(Melody). BC.51
M:C
L:1/16
Q:100
C:Thomas Arne,1710-1778
S:Benjamin Cooke MS.circa 1770, F.Kidson Coll.
R:Air
O:England
A:x
N:Or his son Michael Arne,1740-1786.who was also a composer to theatres
N:and pleasure gardens.
Z:vmp.John Bagnall
K:D
V:1
(a/g/f3) f2f2 f4 d'4 | (g/f/e3) e2e2 e8 | (f/e/d3) (c/d/e3) d4 b4 | (a/g/f3) (e/d/c3) d8|
|(f/e/d3) d2d2 a4 d'4 | (c'/b/a3) (^g/a/b3) a6 T=g2| (f/e/d3) (g/f/e3) a4 d4 | cdef g2f2 e8|
 (a/g/f3) f2f2 f4 d'4 | (g/f/e3) e2e2 Te8 | (f/e/d3) (c/d/e3) d4 b4 | (a/g/f3) (e/d/c3) d8:|]
V:2
d4 d4 d4 d4 | A4 A4 A4 A4 | d4 A4 B4 G4 | A4 A4 D8 ||
d4 d4 B4 B4 | A4 e4 c4/A4/B4/c4/ | d4 e4 f4 F4 | E4 D4 A8 |
(f/e/d3) d2d2 d4 f4 | (e/d/c3) c2c2 c8| d4 A4 B4 G4 | A4 A4 D8 :|

